X: 1349
T: the Star of Kilkenny   #2
R: reel
%S: s:2 b:9(5+4)
B: O'Neill's 1850 #1349
O: McNamara
Z: Trish O'Neil
M: C|
L: 1/8
K: Em
"^A"|: d | BcAF G2GA | B2Ac Beed | BcAF G2ef |[1 gefd Bee :|[2 {a}gef^d He2e |]
"^B"|: f | Tgfga gdBd | gefd Beef | Tgfga bgaf | gefd Be "D.C."e :|
